images/ico-bicro-marche-lieu.svg

<svg xmlns="http://www.w3.org/2000/svg" width="24" height="24" fill="none" viewBox="0 0 24 24"><g clip-path="url(#clip0_218:159)"><path fill="#fdd" d="M16.9398 13.5684C20.2479 13.5684 22.9297 10.8821 22.9297 7.56837C22.9297 4.25467 20.2479 1.56837 16.9398 1.56837C13.6317 1.56837 10.95 4.25467 10.95 7.56837C10.95 10.8821 13.6317 13.5684 16.9398 13.5684Z"/><path fill="#000638" d="M17.76 21.76H19.36V23.36H1.76V21.76H3.36V8.16C3.36 7.94782 3.44429 7.74434 3.59431 7.59431C3.74434 7.44428 3.94783 7.36 4.16 7.36H16.96C17.1722 7.36 17.3757 7.44428 17.5257 7.59431C17.6757 7.74434 17.76 7.94782 17.76 8.16V21.76ZM16.16 21.76V8.96H4.96V21.76H16.16ZM7.36 14.56H9.76V16.16H7.36V14.56ZM7.36 11.36H9.76V12.96H7.36V11.36ZM7.36 17.76H9.76V19.36H7.36V17.76ZM11.36 17.76H13.76V19.36H11.36V17.76ZM11.36 14.56H13.76V16.16H11.36V14.56ZM11.36 11.36H13.76V12.96H11.36V11.36Z"/></g><defs><clipPath id="clip0_218:159"><path fill="#fff" d="M0 0H24V24H0z"/></clipPath></defs></svg>

<svg xmlns="http://www.w3.org/2000/svg" width="24" height="24" fill="none" viewBox="0 0 24 24"><g clip-path="url(#a)"><path fill="#FDD" d="M16.94 13.568a5.995 5.995 0 0 0 5.99-6c0-3.313-2.682-6-5.99-6a5.995 5.995 0 0 0-5.99 6c0 3.314 2.682 6 5.99 6"/><path fill="#000638" d="M17.76 21.76h1.6v1.6H1.76v-1.6h1.6V8.16a.8.8 0 0 1 .8-.8h12.8a.8.8 0 0 1 .8.8zm-1.6 0V8.96H4.96v12.8zm-8.8-7.2h2.4v1.6h-2.4zm0-3.2h2.4v1.6h-2.4zm0 6.4h2.4v1.6h-2.4zm4 0h2.4v1.6h-2.4zm0-3.2h2.4v1.6h-2.4zm0-3.2h2.4v1.6h-2.4z"/></g><defs><clipPath id="a"><path fill="#fff" d="M0 0h24v24H0z"/></clipPath></defs></svg>
